app/resources/img/close.svg

<?xml version="1.0" encoding="utf-8"?>
<!-- Generator: Adobe Illustrator 22.1.0, SVG Export Plug-In . SVG Version: 6.00 Build 0)  -->
<svg version="1.1" id="Capa_1" xmlns="http://www.w3.org/2000/svg" xmlns:xlink="http://www.w3.org/1999/xlink" x="0px" y="0px"
	 viewBox="0 0 489.8 489.8" style="enable-background:new 0 0 489.8 489.8;" xml:space="preserve">
<style type="text/css">
	.st0{fill:#FFFFFF;}
</style>
<g>
	<g>
		<path d="M438.2,0H51.6C23.1,0,0,23.2,0,51.6v386.6c0,28.5,23.2,51.6,51.6,51.6h386.6c28.5,0,51.6-23.2,51.6-51.6V51.6
			C489.8,23.2,466.6,0,438.2,0z M465.3,438.2c0,14.9-12.2,27.1-27.1,27.1H51.6c-14.9,0-27.1-12.2-27.1-27.1V51.6
			c0-14.9,12.2-27.1,27.1-27.1h386.6c14.9,0,27.1,12.2,27.1,27.1V438.2z"/>
		<path class="st0" d="M438.2,24.5H51.6c-14.9,0-27.1,12.2-27.1,27.1v386.6c0,14.9,12.2,27.1,27.1,27.1h386.6
			c14.9,0,27.1-12.2,27.1-27.1V51.6C465.3,36.7,453.1,24.5,438.2,24.5z M319.2,319c-2.4,2.4-5.5,3.6-8.7,3.6s-6.3-1.2-8.7-3.6
			L245,262.2L188.2,319c-2.4,2.4-5.5,3.6-8.7,3.6s-6.3-1.2-8.7-3.6c-4.8-4.8-4.8-12.5,0-17.3l56.8-56.8l-56.8-56.8
			c-4.8-4.8-4.8-12.5,0-17.3s12.5-4.8,17.3,0l56.8,56.8l56.8-56.8c4.8-4.8,12.5-4.8,17.3,0s4.8,12.5,0,17.3l-56.8,56.8l57,56.8
			C324,306.5,324,314.2,319.2,319z"/>
		<path d="M319.2,319c-2.4,2.4-5.5,3.6-8.7,3.6s-6.3-1.2-8.7-3.6L245,262.2L188.2,319c-2.4,2.4-5.5,3.6-8.7,3.6s-6.3-1.2-8.7-3.6
			c-4.8-4.8-4.8-12.5,0-17.3l56.8-56.8l-56.8-56.8c-4.8-4.8-4.8-12.5,0-17.3s12.5-4.8,17.3,0l56.8,56.8l56.8-56.8
			c4.8-4.8,12.5-4.8,17.3,0s4.8,12.5,0,17.3l-56.8,56.8l57,56.8C324,306.5,324,314.2,319.2,319z"/>
	</g>
</g>
</svg>

<?xml version="1.0" encoding="UTF-8" standalone="no"?>
<!DOCTYPE svg PUBLIC "-//W3C//DTD SVG 1.1//EN" "http://www.w3.org/Graphics/SVG/1.1/DTD/svg11.dtd">
<svg width="100%" height="100%" viewBox="0 0 490 490" version="1.1" xmlns="http://www.w3.org/2000/svg" xmlns:xlink="http://www.w3.org/1999/xlink" xml:space="preserve" xmlns:serif="http://www.serif.com/" style="fill-rule:evenodd;clip-rule:evenodd;stroke-linejoin:round;stroke-miterlimit:1.41421;">
    <g>
        <path d="M489.8,0L51.6,0C0,-0.428 0,0 0,0L0,489.8L489.8,489.8L489.8,0L489.8,0ZM465.3,438.2C465.3,453.1 453.1,465.3 438.2,465.3L51.6,465.3C36.7,465.3 24.5,453.1 24.5,438.2L24.5,51.6C24.5,36.7 36.7,24.5 51.6,24.5L438.2,24.5C453.1,24.5 465.3,36.7 465.3,51.6L465.3,438.2Z" style="fill-rule:nonzero;"/>
        <path d="M438.2,24.5L51.6,24.5C36.7,24.5 24.5,36.7 24.5,51.6L24.5,438.2C24.5,453.1 36.7,465.3 51.6,465.3L438.2,465.3C453.1,465.3 465.3,453.1 465.3,438.2L465.3,51.6C465.3,36.7 453.1,24.5 438.2,24.5ZM319.2,319C316.8,321.4 313.7,322.6 310.5,322.6C307.3,322.6 304.2,321.4 301.8,319L245,262.2L188.2,319C185.8,321.4 182.7,322.6 179.5,322.6C176.3,322.6 173.2,321.4 170.8,319C166,314.2 166,306.5 170.8,301.7L227.6,244.9L170.8,188.1C166,183.3 166,175.6 170.8,170.8C175.6,166 183.3,166 188.1,170.8L244.9,227.6L301.7,170.8C306.5,166 314.2,166 319,170.8C323.8,175.6 323.8,183.3 319,188.1L262.2,244.9L319.2,301.7C324,306.5 324,314.2 319.2,319Z" style="fill:white;fill-rule:nonzero;"/>
        <path d="M319.2,319C316.8,321.4 313.7,322.6 310.5,322.6C307.3,322.6 304.2,321.4 301.8,319L245,262.2L188.2,319C185.8,321.4 182.7,322.6 179.5,322.6C176.3,322.6 173.2,321.4 170.8,319C166,314.2 166,306.5 170.8,301.7L227.6,244.9L170.8,188.1C166,183.3 166,175.6 170.8,170.8C175.6,166 183.3,166 188.1,170.8L244.9,227.6L301.7,170.8C306.5,166 314.2,166 319,170.8C323.8,175.6 323.8,183.3 319,188.1L262.2,244.9L319.2,301.7C324,306.5 324,314.2 319.2,319Z" style="fill-rule:nonzero;"/>
    </g>
</svg>
